X:1
T:How Oft We Are There
T:John Robson Sweney
T:How Oft We Are There
T:Public Domain
T:Public Domain
T:Public Domain
C:John Robson Sweney
Z:Public Domain
%%score ( 1 2 ) ( 3 4 ) ( 5 6 )
L:1/8
M:4/4
K:G
V:1 treble 
V:2 treble 
V:3 treble 
V:4 treble 
V:5 bass 
V:6 bass 
V:1
 D2 | B2 AG d2 BA | d2 BG E2 (FE) | D2 GA B2 AE | A6 D2 | B2 AG c2 BA | d2 BG e2 (cA) | %7
w: 1.~We|sing of a land where the|ser- vants of God Shall *|meet when their jour- ney is|o’er, And|clasp their glad hands as they|ga- ther at morn, To *|
w: 2.~We|sing of a land where the|leaves nev- er fall, A *|land where their bloom nev- er|dies; And|Je- sus Him- self, with His|own lov- ing hand, Will *|
w: 3.~We|sing of the palms that the|con- quer- ors wave, Who *|tri- umphed through Je- sus our|Lord; Who|fought to the last, and with|shouts on their tongues, Went *|
w: 4.~We|sing of the friends who are|wait- ing to- day For *|us in that re- gion so|fair; But|who can de- scribe what a|joy it will be To *|
 d2 BG D2 EF | G6 ||"^Refrain" [DG]2 | [FA]2 [^E^G][EG] [FA]2 [=GB][Ac] | %11
w: la- bor and sor- row no|more.|||
w: wipe ev- ery tear from our|eyes.|||
w: home to re- ceive their re-|ward.|We|sing of the beau- ti- ful|
w: know that in- deed we are|there?|||
 [Ac]2 [GB][G^A] [GB]2 [GB]2 | [Ge]2 [GB][EG] [EF]2 EE | (^D2 EE D2) =D2 | %14
w: |||
w: |||
w: man- sions of rest Our|Sav- ior has gone to pre-|oh, * * * when|
w: |||
 [DB]2 [DA]G [Ec]2 [FB][FA] | [Gd]2 [GB][=FG] [Ge]2 (cA) | [Gd]2 [DB][B,G] D2 [^CE][=CF] | %17
w: |||
w: |||
w: of the bliss they un- fold,|spir- it, how oft we *|there. * * * * *|
w: |||
 [B,G]6 |] %18
w: |
w: |
w: |
w: |
V:2
 x2 | x8 | x8 | x8 | x8 | x8 | x8 | x8 | x6 || x2 | x8 | x8 | x6 EE | B6 D2 | x3 G x4 | x6 E2 | %16
w: ||||||||||||||||
w: ||||||||||||||||
w: ||||||||||||pare; And|we think|In|are|
 x4 D2 x2 | x6 |] %18
w: ||
w: ||
w: ||
V:3
 z2 | z ([B,DG][B,DG][B,DG]) z ([A,DF][A,DF][A,DF]) | z ([B,DG][B,DG][B,DG]) z ([CEG][CEG][CEG]) | %3
 z ([B,DG][B,DG][B,DG]) z [A,^CG]([A,CG][A,CG]) | z ([DF]^CC [=CA]2) z2 | %5
 z ([B,DG][B,DG][B,DG]) z ([A,DF][A,DF][A,DF]) | z ([D=FG][DFG][DFG]) z ([CEG][CEG][CEG]) | %7
 z ([B,DG][B,DG][B,DG]) z (D[^CE][=CF]) | (z [B,D][CE][C_E] [B,D]2) || x2 | x8 | x8 | x8 | x8 | %14
 x8 | x8 | x8 | x6 |] %18
V:4
 x2 | x8 | x8 | x8 | A3- x5 | x8 | x8 | x8 | G6 || x2 | x8 | x8 | x8 | x8 | x8 | x8 | x8 | x6 |] %18
V:5
 z2 | G,,3 z A,,3 z | B,,3 z C,3 z | G,,3 z A,,3 z | D,2 [E,G,]2 [F,A,]2 z2 | G,,3 z A,,3 z | %6
 B,,3 z C,3 z | D,3 z D,3 z | G,,6 || [G,B,]2 | [D,D]2 [D,D][D,D] [D,D]2 [D,D][D,D] | %11
 [G,D]2 [G,D][G,^C] [G,D]2 [G,B,]2 | [E,B,]2 [E,B,][E,B,] [C,A,]2 [C,^A,][C,A,] | %13
 ([B,,B,]2 [E,G,][E,G,] [B,,F,]2) [A,,F,]2 | [G,,G,]2 [G,C][G,B,] [A,D]2 [A,D][A,C] | %15
 [B,D]2 [G,D][G,B,] [C,C]2 (G,C) | [D,B,]2 [D,G,][D,G,] [D,F,]2 [D,G,][D,A,] | [G,,G,]6 |] %18
V:6
 x2 | x8 | x8 | x8 | x8 | x8 | x8 | x8 | x6 || x2 | x8 | x8 | x8 | x8 | x8 | x6 C,2 | x8 | x6 |] %18

